X: 20916
T: Josie's Tune
R: waltz
M: 3/4
K: Eminor
E2JA2A2|e6|zdJe{e}dd2|B6-|BzcBA/B/A|{c}A2e4-|e3zdJe|Jg4-d2-|d4z2|
cB JA2A2|e6|z2dJe{de}d2-|dB2-B3-|Bz3G2|E2JB2A2-|A6-|A6|
z2z3E|JA2Ae3-|!>!e6|z2Je{de}d3|{e}dB3-B2-|B2JcB/{c}B/A2-|Ae3-e2|z2d/e/Jg3-|
g3{a}gd2-|d4zJc|B{AB}A2A2e-|!>!e4z2|zJe{de}d3{e}d|!>!B6|zFJ!>!G2-E2|zJB2-AA/A3/2-|A6|
z3e2f|Jg6-|g{a}gd4|z!>!Je2{e}d/{e}d/c2-|c2B/c/Je3-|e2z2f/e/{de}d-|d2{a}dJB3-|
B2zc/d/Jed/c/|Bc/B/A/G/JA2E|GJA3zJe-|e3-e2{a}e|
d/e/d2{e}dJB2-|B4z2|BG{AG}E3 (3A/JB/G/|{c}A{c}A{c}A{c}A3-|A6|!>!A6|

